X: 43
T: Miss Drummond of Logiealmond's Strathspey
R: strathspey
Q: "Slow"
B: William Shepherd "1st Collection" 1793 p.5 #3
F: http://imslp.org/wiki/File:PMLP73094-Shepherd_Collections_HMT.pdf
C: William Shepherd (17??-1812)
Z: 2012 John Chambers <jc:trillian.mit.edu>
M: C
L: 1/16
K: Em
EF |\
{F}TG3E GFE^D E3B B3F | G3B d3B TFA.d.B AFDF |\
{F}TG3E GFE^D E2B2 B2ef | {f}g3e fbB^d e2TE2E2 :|
B2 |\
e3f {ef}g2fe TB2e^d e2B2 | e3f {a}Tg2fe dfba gfe^d |\
e3f {a}g2fe TB2e^d e2c2 | B2B,2 BAGF G2E2E2 ||
B2 |\
e3f {ef}g2fe TB2e^d e2B2 | e3f {a}Tg2fe dfba gfe^d |\
b3g a3f g3e B3G | ABcA Be^df e2TE2E2 |]
